img/footer-avtor-logo.svg

<svg width="108" height="39" viewBox="0 0 108 39" fill="none" xmlns="http://www.w3.org/2000/svg">
<path d="M44.582 28.426C44.7698 28.4144 44.9553 28.3771 45.134 28.3151V29.7263C44.7564 29.8745 44.3566 29.9496 43.9538 29.948C43.6117 29.9839 43.2676 29.9061 42.9692 29.7255C42.6707 29.5448 42.4327 29.2703 42.2882 28.94C41.3994 29.6974 40.2878 30.1005 39.1473 30.0791C37.6339 30.0791 36.2348 29.2021 36.2348 27.3776C36.2348 25.1197 38.2145 24.4241 39.9468 24.4241C40.6765 24.4355 41.4034 24.5233 42.1169 24.6862V24.3737C42.1169 23.275 41.3554 22.4988 39.9277 22.4988C38.894 22.5023 37.8726 22.7358 36.9296 23.1843V21.3699C37.9559 20.9951 39.0325 20.7977 40.1181 20.7852C42.4785 20.7852 43.9253 21.9747 43.9253 24.6459V27.8111C43.912 27.962 43.9555 28.1123 44.0465 28.2294C44.1374 28.3465 44.2683 28.4207 44.4107 28.436C44.4679 28.4427 44.5258 28.4393 44.582 28.426ZM38.1479 27.2163C38.177 27.5946 38.3467 27.9451 38.6198 28.1908C38.8929 28.4366 39.247 28.5574 39.6041 28.5268H39.7088C40.6057 28.5405 41.4713 28.1782 42.1169 27.5187V25.9966C41.522 25.8626 40.9165 25.7883 40.3084 25.7749C39.2615 25.7749 38.1479 26.1277 38.1479 27.2365V27.2163Z" fill="white"/>
<path d="M50.5022 20.7651C51.4002 20.7443 52.2873 20.9774 53.072 21.4404V23.2448C52.3925 22.7578 51.5891 22.5011 50.7687 22.5089C50.0431 22.4476 49.3241 22.6933 48.7693 23.1922C48.2145 23.6912 47.869 24.4027 47.8085 25.1709C47.7481 25.9391 47.9776 26.7014 48.4468 27.2907C48.916 27.88 49.5867 28.2484 50.3118 28.3151C50.4639 28.3252 50.6165 28.3252 50.7687 28.3151C51.6191 28.315 52.4551 28.0823 53.1957 27.6397V29.4541C52.3309 29.8749 51.387 30.0817 50.4355 30.0589C49.8841 30.1 49.3303 30.0253 48.8062 29.8391C48.282 29.6529 47.7978 29.3589 47.3812 28.974C46.9647 28.589 46.624 28.1207 46.3789 27.5959C46.1337 27.0711 45.9888 26.5002 45.9526 25.916C45.9526 25.7749 45.9526 25.6237 45.9526 25.4826C45.9335 24.882 46.0266 24.2834 46.2264 23.721C46.4263 23.1586 46.729 22.6435 47.1171 22.2052C47.5053 21.767 47.9713 21.4142 48.4885 21.167C49.0057 20.9199 49.5638 20.7833 50.131 20.7651C50.2545 20.7555 50.3786 20.7555 50.5022 20.7651Z" fill="white"/>
<path d="M62.6661 28.426C62.8538 28.4144 63.0394 28.3771 63.2181 28.3151V29.7263C62.8404 29.8745 62.4407 29.9496 62.0379 29.948C61.6958 29.9839 61.3517 29.9061 61.0532 29.7255C60.7548 29.5448 60.5168 29.2703 60.3723 28.94C59.4834 29.6974 58.3719 30.1005 57.2313 30.0791C55.718 30.0791 54.3189 29.2021 54.3189 27.3776C54.3189 25.1197 56.2986 24.4241 58.0308 24.4241C58.7606 24.4355 59.4875 24.5233 60.2009 24.6862V24.3737C60.2009 23.275 59.4395 22.4988 58.0118 22.4988C56.9781 22.5023 55.9567 22.7358 55.0137 23.1843V21.3699C56.04 20.9951 57.1166 20.7977 58.2022 20.7852C60.5626 20.7852 62.0093 21.9747 62.0093 24.6459V27.8111C61.9961 27.962 62.0396 28.1123 62.1305 28.2294C62.2215 28.3465 62.3524 28.4207 62.4948 28.436C62.552 28.4427 62.6099 28.4393 62.6661 28.426ZM56.232 27.2163C56.2611 27.5946 56.4308 27.9451 56.7039 28.1908C56.977 28.4366 57.331 28.5574 57.6882 28.5268H57.7929C58.6897 28.5405 59.5553 28.1782 60.2009 27.5187V25.9966C59.6061 25.8626 59.0006 25.7883 58.3925 25.7749C57.336 25.7749 56.232 26.1277 56.232 27.2365V27.2163Z" fill="white"/>
<path d="M72.974 16.9648V29.8271H71.2989V28.426C70.9277 28.9464 70.445 29.3659 69.8906 29.6498C69.3362 29.9338 68.726 30.074 68.1103 30.0589C66.9966 29.9812 65.9524 29.4578 65.1895 28.5949C64.4267 27.732 64.0022 26.5941 64.0022 25.412C64.0022 24.2299 64.4267 23.092 65.1895 22.2291C65.9524 21.3662 66.9966 20.8428 68.1103 20.7651C68.6778 20.7487 69.2416 20.8669 69.7603 21.1111C70.2791 21.3553 70.7397 21.7192 71.1085 22.1763V16.9648H73.0121H72.974ZM68.4435 22.4888C67.7114 22.4888 67.0093 22.7967 66.4917 23.345C65.9741 23.8932 65.6833 24.6367 65.6833 25.412C65.6833 26.1873 65.9741 26.9308 66.4917 27.479C67.0093 28.0272 67.7114 28.3352 68.4435 28.3352C69.0099 28.3399 69.5648 28.166 70.0377 27.8358C70.5105 27.5055 70.88 27.0337 71.099 26.4805V24.3334C70.8734 23.786 70.5021 23.32 70.0305 22.9924C69.5589 22.6648 69.0075 22.4898 68.4435 22.4888Z" fill="white"/>
<path d="M78.9989 20.7651C82.3111 20.7651 83.4532 23.5976 82.9202 26.1478H76.6479C76.8573 27.7304 78.3136 28.3856 79.8364 28.3856C80.7481 28.3862 81.6485 28.1728 82.4729 27.7607V29.4541C81.5292 29.8805 80.5099 30.0868 79.4843 30.0589C76.9335 30.0589 74.7253 28.5167 74.7253 25.412C74.6709 24.2403 75.0569 23.0935 75.799 22.2226C76.5411 21.3517 77.5787 20.8276 78.6848 20.7651H78.9989ZM79.0845 22.398C78.7864 22.3733 78.4865 22.411 78.2021 22.5091C77.9178 22.6071 77.6544 22.7637 77.4272 22.9696C77.2 23.1756 77.0134 23.427 76.8781 23.7095C76.7427 23.9919 76.6613 24.2998 76.6384 24.6157V24.6761H81.2546C81.281 24.4048 81.2565 24.1305 81.1828 23.8692C81.109 23.6078 80.9873 23.3643 80.8247 23.1528C80.662 22.9412 80.4616 22.7657 80.2349 22.6362C80.0082 22.5067 79.7596 22.4257 79.5033 22.398C79.3644 22.3779 79.2235 22.3779 79.0845 22.398Z" fill="white"/>
<path d="M84.8048 21.007H86.4514V22.1057C86.8022 21.6912 87.2302 21.3581 87.7085 21.1273C88.1868 20.8966 88.7051 20.7732 89.2306 20.7651C89.7436 20.7308 90.2557 20.8439 90.7131 21.0923C91.1704 21.3407 91.5559 21.7152 91.829 22.1763C92.2017 21.748 92.6511 21.4026 93.1512 21.1603C93.6513 20.918 94.1919 20.7837 94.7415 20.7651C95.1767 20.7503 95.6099 20.8337 96.0124 21.0095C96.4148 21.1854 96.7775 21.4498 97.0762 21.7853C97.3749 22.1207 97.603 22.5196 97.7453 22.9554C97.8876 23.3912 97.9408 23.854 97.9015 24.3133V29.8271H95.9979V24.3737C96.0405 23.93 95.915 23.4866 95.6491 23.1407C95.3832 22.7948 94.9986 22.5749 94.5797 22.5291H94.3513C93.9544 22.565 93.569 22.6885 93.2198 22.8916C92.8707 23.0947 92.5655 23.373 92.324 23.7085V29.8271H90.4204V24.3737C90.463 23.93 90.3375 23.4866 90.0716 23.1407C89.8057 22.7948 89.4211 22.5749 89.0022 22.5291H88.7738C88.3331 22.5669 87.906 22.7087 87.5239 22.9442C87.1418 23.1797 86.8144 23.5028 86.5656 23.8899V29.8372H84.8048V21.007Z" fill="white"/>
<path d="M106.096 21.007H108L104.098 31.0165C103.146 33.3148 102.013 34.0406 100.747 34.0406C100.379 34.0306 100.012 33.9799 99.6528 33.8894V32.2564C99.9273 32.3449 100.213 32.3891 100.5 32.3874C101.452 32.3874 102.08 31.7121 102.565 30.3714L102.737 29.9279L98.7771 21.0372H100.804L103.66 27.6901L106.096 21.007Z" fill="white"/>
<path d="M38.6999 1.5221V6.56216C39.0514 6.18238 39.4703 5.87999 39.9326 5.67239C40.3949 5.46479 40.8914 5.35609 41.3935 5.35255C41.8191 5.32525 42.2457 5.38705 42.6487 5.53441C43.0518 5.68177 43.4235 5.9118 43.7426 6.21136C44.0617 6.51091 44.3219 6.87413 44.5084 7.28024C44.6949 7.68635 44.804 8.1274 44.8295 8.57819C44.839 8.7023 44.839 8.82703 44.8295 8.95115V14.4045H42.9259V9.20315C42.9563 8.94983 42.9387 8.69261 42.8739 8.44662C42.8091 8.20064 42.6985 7.97087 42.5486 7.77081C42.3988 7.57076 42.2126 7.40447 42.0012 7.28173C41.7897 7.15899 41.5572 7.08227 41.3174 7.05609C41.2192 7.04604 41.1204 7.04604 41.0223 7.05609C40.552 7.08571 40.0954 7.23494 39.6912 7.49112C39.2869 7.74731 38.9469 8.1029 38.6999 8.52779V14.3743H36.7963V1.5221H38.6999Z" fill="white"/>
<path d="M49.9025 2.41923V5.56423H52.9197V7.28793H49.9025V11.32C49.9025 12.4792 50.407 12.8622 51.4825 12.8622C52.0604 12.862 52.6327 12.7421 53.1672 12.5094V14.2029C52.4477 14.4649 51.6912 14.5944 50.9305 14.5859C50.5972 14.6311 50.2589 14.6061 49.9348 14.5124C49.6107 14.4187 49.3073 14.2581 49.042 14.0399C48.7767 13.8216 48.5547 13.5501 48.3888 13.2407C48.2228 12.9314 48.1162 12.5904 48.0751 12.2373C48.0561 12.053 48.0561 11.8671 48.0751 11.6829V7.26777H46.5522V5.54407H48.0465V2.88292L49.9025 2.41923Z" fill="white"/>
<path d="M55.2992 14.3843V5.56423H56.9458V6.66296C57.2966 6.24843 57.7246 5.9153 58.2029 5.68457C58.6812 5.45384 59.1995 5.33049 59.725 5.32231C60.238 5.28809 60.7501 5.40114 61.2075 5.64952C61.6648 5.8979 62.0503 6.27241 62.3234 6.73352C62.6961 6.30524 63.1455 5.95987 63.6456 5.71757C64.1457 5.47528 64.6863 5.3409 65.2359 5.32231C65.6711 5.30757 66.1043 5.39091 66.5068 5.56679C66.9092 5.74267 67.2719 6.00709 67.5706 6.34254C67.8693 6.67799 68.0974 7.07682 68.2397 7.51263C68.382 7.94843 68.4352 8.41127 68.3959 8.87051V14.3843H66.4923V8.93099C66.5174 8.70892 66.5005 8.48378 66.4425 8.26873C66.3845 8.05367 66.2866 7.853 66.1546 7.67845C66.0226 7.5039 65.859 7.35896 65.6735 7.2521C65.488 7.14524 65.2842 7.07861 65.0741 7.05609H64.8457C64.4465 7.09568 64.0597 7.22385 63.7104 7.43226C63.3611 7.64067 63.0572 7.92465 62.8184 8.2657V14.3843H60.9148V8.93099C60.9398 8.70582 60.9216 8.47762 60.8612 8.26009C60.8009 8.04255 60.6997 7.84016 60.5637 7.66507C60.4277 7.48997 60.2597 7.34578 60.0698 7.24113C59.8799 7.13648 59.672 7.07354 59.4585 7.05609H59.2301C58.7894 7.09388 58.3624 7.23572 57.9803 7.47121C57.5982 7.70669 57.2707 8.02984 57.0219 8.4169V14.3743H55.2992V14.3843Z" fill="white"/>
<path d="M72.974 1.51202H71.118V14.3743H72.974V1.51202Z" fill="white"/>
<path d="M14.6957 0H14.5434L0 1.61282V29.8372L14.5434 39L29.0868 29.8372V1.61282L14.6957 0ZM27.1832 28.678L14.5434 36.6413L1.90359 28.678V17.1362L14.4863 25.0693V26.5107L5.85353 21.0675V22.4585L14.5244 27.9723V29.444L5.86305 23.9806V25.3717L14.5339 30.8855L23.2809 25.3414V19.3538L27.1832 16.8842V28.678ZM27.1832 15.4125L23.7092 17.5697L22.1102 18.5777L14.4958 13.7795V15.1706L21.0061 19.2732H20.9395L20.7967 19.3639L19.8449 19.9385L14.4768 16.5516V17.9426L18.7123 20.6139L17.7129 21.3195L14.5148 19.3034V20.6945L16.6183 22.0049L14.4768 23.3657L1.96069 15.4831L14.4958 7.49961L27.1832 15.4125ZM27.1832 14.0114L14.4768 6.04807L1.90359 14.0013V3.41716L14.5529 2.01602L27.1927 3.41716V14.0114H27.1832Z" fill="white"/>
</svg>

<svg width="108" height="39" fill="none" xmlns="http://www.w3.org/2000/svg"><path d="M44.582 28.426c.188-.012.373-.049.552-.11v1.41a3.193 3.193 0 01-1.18.222 1.58 1.58 0 01-.985-.223 1.72 1.72 0 01-.68-.785c-.89.757-2.001 1.16-3.142 1.14-1.513 0-2.912-.878-2.912-2.702 0-2.258 1.98-2.954 3.712-2.954.73.012 1.456.1 2.17.262v-.312c0-1.099-.762-1.875-2.19-1.875a7.03 7.03 0 00-2.997.685V21.37a9.612 9.612 0 013.188-.585c2.36 0 3.807 1.19 3.807 3.86v3.166c-.013.151.03.301.122.418a.534.534 0 00.535.197zm-6.434-1.21c.029.379.199.73.472.975.273.246.627.366.984.336h.105a3.298 3.298 0 002.408-1.008v-1.522a9.145 9.145 0 00-1.809-.222c-1.047 0-2.16.353-2.16 1.462v-.02zM50.502 20.765a4.83 4.83 0 012.57.675v1.805a3.886 3.886 0 00-2.303-.736 2.652 2.652 0 00-2 .683c-.554.5-.9 1.21-.96 1.979-.06.768.169 1.53.638 2.12.469.589 1.14.957 1.865 1.024.152.01.305.01.457 0 .85 0 1.686-.233 2.427-.675v1.814a5.975 5.975 0 01-2.76.605 3.979 3.979 0 01-1.63-.22 4.147 4.147 0 01-1.425-.865 4.424 4.424 0 01-1.002-1.378 4.65 4.65 0 01-.426-1.68v-.433c-.02-.601.074-1.2.273-1.762.2-.562.503-1.078.891-1.516a4.328 4.328 0 011.372-1.038 4.113 4.113 0 011.642-.402c.123-.01.248-.01.371 0zM62.666 28.426c.188-.012.373-.049.552-.11v1.41a3.194 3.194 0 01-1.18.222 1.58 1.58 0 01-.985-.223 1.721 1.721 0 01-.68-.785c-.89.757-2.001 1.16-3.142 1.14-1.513 0-2.912-.878-2.912-2.702 0-2.258 1.98-2.954 3.712-2.954.73.012 1.456.1 2.17.262v-.312c0-1.099-.761-1.875-2.19-1.875a7.03 7.03 0 00-2.997.685V21.37a9.612 9.612 0 013.188-.585c2.36 0 3.807 1.19 3.807 3.86v3.166c-.013.151.03.301.121.418a.535.535 0 00.536.197zm-6.434-1.21c.03.379.199.73.472.975.273.246.627.366.984.336h.105a3.298 3.298 0 002.408-1.008v-1.522a9.143 9.143 0 00-1.809-.222c-1.056 0-2.16.353-2.16 1.462v-.02zM72.974 16.965v12.862h-1.675v-1.401a3.94 3.94 0 01-1.408 1.224 3.701 3.701 0 01-1.78.409 4.302 4.302 0 01-2.922-1.464 4.81 4.81 0 01-1.187-3.183 4.81 4.81 0 011.188-3.183 4.302 4.302 0 012.92-1.464 3.624 3.624 0 011.65.346c.52.244.98.608 1.349 1.065v-5.211h1.903-.038zm-4.53 5.524c-.733 0-1.435.308-1.952.856a3.013 3.013 0 00-.809 2.067c0 .775.291 1.519.809 2.067.517.548 1.22.856 1.951.856a2.742 2.742 0 001.595-.5c.472-.33.842-.801 1.061-1.355v-2.147a3.037 3.037 0 00-1.069-1.34 2.787 2.787 0 00-1.587-.504zM78.999 20.765c3.312 0 4.454 2.833 3.921 5.383h-6.272c.21 1.582 1.666 2.238 3.188 2.238.912 0 1.813-.213 2.637-.625v1.693a6.802 6.802 0 01-2.989.605c-2.55 0-4.759-1.542-4.759-4.647a4.596 4.596 0 011.074-3.19 4.1 4.1 0 012.886-1.457h.314zm.086 1.633a2.157 2.157 0 00-.883.111 2.244 2.244 0 00-.775.46 2.393 2.393 0 00-.549.74c-.135.283-.217.59-.24.907v.06h4.617a2.193 2.193 0 00-.072-.807 2.12 2.12 0 00-.358-.716 1.991 1.991 0 00-.59-.517 1.882 1.882 0 00-.732-.238c-.139-.02-.28-.02-.418 0zM84.805 21.007h1.646v1.099a3.83 3.83 0 011.258-.979 3.63 3.63 0 011.522-.362 2.721 2.721 0 011.482.327c.457.249.843.623 1.116 1.084a4.16 4.16 0 011.322-1.016c.5-.242 1.04-.376 1.59-.395.436-.015.869.069 1.271.244.403.176.766.44 1.064.776.299.336.527.735.67 1.17.142.436.195.899.156 1.358v5.514h-1.904v-5.453a1.753 1.753 0 00-.349-1.233 1.567 1.567 0 00-1.07-.612h-.228a2.74 2.74 0 00-1.131.363c-.35.203-.654.481-.896.817v6.118H90.42v-5.453a1.753 1.753 0 00-.348-1.233 1.567 1.567 0 00-1.07-.612h-.228c-.44.038-.868.18-1.25.415-.382.236-.71.559-.958.946v5.947h-1.761v-8.83zM106.096 21.007H108l-3.902 10.01c-.952 2.298-2.085 3.024-3.351 3.024a5.04 5.04 0 01-1.094-.152v-1.633c.274.089.56.133.847.131.952 0 1.58-.675 2.065-2.016l.172-.443-3.96-8.89h2.027l2.856 6.652 2.436-6.683zM38.7 1.522v5.04c.351-.38.77-.682 1.233-.89a3.626 3.626 0 011.46-.32c.426-.027.853.035 1.256.182a3.21 3.21 0 011.094.677c.319.3.579.663.765 1.07a3.6 3.6 0 01.322 1.67v5.454h-1.904V9.203c.03-.253.013-.51-.052-.756a1.96 1.96 0 00-.325-.676c-.15-.2-.336-.367-.548-.49a1.737 1.737 0 00-.684-.225 1.448 1.448 0 00-.295 0c-.47.03-.927.179-1.33.435a3.021 3.021 0 00-.992 1.037v5.846h-1.904V1.522H38.7zM49.903 2.42v3.144h3.017v1.724h-3.017v4.032c0 1.16.504 1.542 1.58 1.542.577 0 1.15-.12 1.684-.353v1.694a6.326 6.326 0 01-2.236.383c-.334.045-.672.02-.996-.074a2.499 2.499 0 01-.893-.472 2.663 2.663 0 01-.653-.8 2.81 2.81 0 01-.314-1.003 2.703 2.703 0 010-.554V7.268h-1.523V5.544h1.495V2.883l1.856-.464zM55.3 14.384v-8.82h1.646v1.099c.35-.415.779-.748 1.257-.978a3.63 3.63 0 011.522-.363 2.722 2.722 0 011.483.328c.457.248.842.622 1.115 1.084a4.16 4.16 0 011.323-1.016c.5-.243 1.04-.377 1.59-.396.435-.014.868.069 1.27.245.403.176.766.44 1.065.776.298.335.526.734.669 1.17.142.435.195.898.156 1.358v5.513h-1.904V8.931a1.779 1.779 0 00-.05-.662 1.722 1.722 0 00-.287-.59 1.615 1.615 0 00-.481-.427 1.526 1.526 0 00-.6-.196h-.228c-.4.04-.786.168-1.136.376-.349.209-.653.493-.892.834v6.118h-1.903V8.931a1.777 1.777 0 00-.054-.67 1.718 1.718 0 00-.297-.596 1.611 1.611 0 00-.494-.424 1.523 1.523 0 00-.611-.185h-.229c-.44.038-.868.18-1.25.415-.382.236-.71.559-.958.946v5.957h-1.723v.01zM72.974 1.512h-1.856v12.862h1.856V1.512zM14.696 0h-.153L0 1.613v28.224L14.543 39l14.544-9.163V1.613L14.696 0zm12.487 28.678l-12.64 7.963-12.64-7.963V17.136l12.583 7.933v1.442l-8.632-5.444v1.392l8.67 5.513v1.472l-8.66-5.463v1.39l8.67 5.515 8.747-5.545v-5.987l3.902-2.47v11.794zm0-13.266L23.71 17.57l-1.599 1.008-7.614-4.798v1.39l6.51 4.103h-.067l-.142.09-.952.576-5.368-3.387v1.39l4.235 2.672-1 .706-3.197-2.017v1.392l2.103 1.31-2.141 1.36L1.96 15.484 14.496 7.5l12.687 7.912zm0-1.4L14.477 6.047 1.904 14.001V3.417l12.649-1.401 12.64 1.401v10.594h-.01z" fill="#fff"/></svg>
